public/new/svg22.svg

<svg width="28" height="28" viewBox="0 0 28 28" fill="none" xmlns="http://www.w3.org/2000/svg">
<path d="M20.4487 8.50403L22.5517 17.616L23.5257 17.391L21.4227 8.27903L20.4487 8.50403ZM13.9427 14.01L21.5737 18.866L22.1107 18.022L14.4797 13.166L13.9427 14.01ZM14.3787 11.715L19.1907 8.10603L18.5907 7.30603L13.7787 10.915L14.3787 11.715ZM10.9597 13.827L6.2387 20.571L7.0577 21.144L11.7787 14.4L10.9597 13.827ZM6.3307 20.669L8.6407 7.58103L7.6557 7.40703L5.3457 20.495L6.3307 20.669ZM9.0407 7.45303L11.0357 10.945L11.9037 10.449L9.9087 6.95703L9.0407 7.45303Z" fill="#77787E"/>
<path d="M8.5 7C9.328 7 10 6.328 10 5.5C10 4.672 9.328 4 8.5 4C7.672 4 7 4.672 7 5.5C7 6.328 7.672 7 8.5 7ZM8.5 8C7.119 8 6 6.881 6 5.5C6 4.119 7.119 3 8.5 3C9.881 3 11 4.119 11 5.5C11 6.881 9.881 8 8.5 8ZM5.5 24C6.328 24 7 23.328 7 22.5C7 21.672 6.328 21 5.5 21C4.672 21 4 21.672 4 22.5C4 23.328 4.672 24 5.5 24ZM5.5 25C4.119 25 3 23.881 3 22.5C3 21.119 4.119 20 5.5 20C6.881 20 8 21.119 8 22.5C8 23.881 6.881 25 5.5 25ZM12.5 14C13.328 14 14 13.328 14 12.5C14 11.672 13.328 11 12.5 11C11.672 11 11 11.672 11 12.5C11 13.328 11.672 14 12.5 14ZM12.5 15C11.119 15 10 13.881 10 12.5C10 11.119 11.119 10 12.5 10C13.881 10 15 11.119 15 12.5C15 13.881 13.881 15 12.5 15ZM20.5 8C21.328 8 22 7.328 22 6.5C22 5.672 21.328 5 20.5 5C19.672 5 19 5.672 19 6.5C19 7.328 19.672 8 20.5 8ZM20.5 9C19.119 9 18 7.881 18 6.5C18 5.119 19.119 4 20.5 4C21.881 4 23 5.119 23 6.5C23 7.881 21.881 9 20.5 9ZM23.5 21C24.328 21 25 20.328 25 19.5C25 18.672 24.328 18 23.5 18C22.672 18 22 18.672 22 19.5C22 20.328 22.672 21 23.5 21ZM23.5 22C22.119 22 21 20.881 21 19.5C21 18.119 22.119 17 23.5 17C24.881 17 26 18.119 26 19.5C26 20.881 24.881 22 23.5 22Z" fill="#77787E"/>
</svg>

<svg fill="none" height="28" viewBox="0 0 28 28" width="28" xmlns="http://www.w3.org/2000/svg"><g fill="#77787e"><path d="m20.4487 8.50403 2.103 9.11197.974-.225-2.103-9.11197zm-6.506 5.50597 7.631 4.856.537-.844-7.631-4.856zm.436-2.295 4.812-3.60897-.6-.8-4.812 3.60897zm-3.419 2.112-4.721 6.744.819.573 4.721-6.744zm-4.629 6.842 2.31-13.08797-.985-.174-2.31 13.08797zm2.71-13.21597 1.995 3.49197.868-.496-1.995-3.49197z"/><path d="m8.5 7c.828 0 1.5-.672 1.5-1.5s-.672-1.5-1.5-1.5-1.5.672-1.5 1.5.672 1.5 1.5 1.5zm0 1c-1.381 0-2.5-1.119-2.5-2.5s1.119-2.5 2.5-2.5 2.5 1.119 2.5 2.5-1.119 2.5-2.5 2.5zm-3 16c.828 0 1.5-.672 1.5-1.5s-.672-1.5-1.5-1.5-1.5.672-1.5 1.5.672 1.5 1.5 1.5zm0 1c-1.381 0-2.5-1.119-2.5-2.5s1.119-2.5 2.5-2.5 2.5 1.119 2.5 2.5-1.119 2.5-2.5 2.5zm7-11c.828 0 1.5-.672 1.5-1.5s-.672-1.5-1.5-1.5-1.5.672-1.5 1.5.672 1.5 1.5 1.5zm0 1c-1.381 0-2.5-1.119-2.5-2.5s1.119-2.5 2.5-2.5 2.5 1.119 2.5 2.5-1.119 2.5-2.5 2.5zm8-7c.828 0 1.5-.672 1.5-1.5s-.672-1.5-1.5-1.5-1.5.672-1.5 1.5.672 1.5 1.5 1.5zm0 1c-1.381 0-2.5-1.119-2.5-2.5s1.119-2.5 2.5-2.5 2.5 1.119 2.5 2.5-1.119 2.5-2.5 2.5zm3 12c.828 0 1.5-.672 1.5-1.5s-.672-1.5-1.5-1.5-1.5.672-1.5 1.5.672 1.5 1.5 1.5zm0 1c-1.381 0-2.5-1.119-2.5-2.5s1.119-2.5 2.5-2.5 2.5 1.119 2.5 2.5-1.119 2.5-2.5 2.5z"/></g></svg>
